!! 00000] TT[WS
!!!OTL: Guo danian
!!!ARE: Asia, China,ÿShanxi Dingxiang
!! Ethnic Group: Han
!! WI, 234
!!!SCT: J0279
!!!YEM: Copyright 1995, estate of Helmut Schaffrath.
**kern
*ICvox
*Ivox
*M2/4
*k[f#c#g#]
*A:
{8a
8b
8cc#
8ee
=1
4.b
8ee
=2
8cc#
8b
8a
8f#
=3
2e}
=4
{8a
8b
8cc#
8ee
=5
8cc#
8b
4a
=6
8cc#
8e
8f#
8a
=7
2e}
=8
{8b
8cc#
4b
=9
8b
8ee
8cc#
8ee
=10
4b
4e
=11
8a
8f#
4a}
=12
{8cc#
8cc#
8g#
8f#
=13
4cc#
4e
=14
8f#
8e
8cc#
8b
=15
2a}
==
!!!AGN: Xiaodiao. Fengsuge
!!!ONB: ESAC (Essen Associative Code) Database: CHINA
!!!AMT: simple duple
!!!AIN: vox
!!!EED: Helmut Schaffrath
!!!EEV: 1.0
*-
